icons/logo-kesselmedia.svg

<svg xmlns="http://www.w3.org/2000/svg" xml:space="preserve" width="512" height="512" style="fill-rule:evenodd;clip-rule:evenodd;stroke-linejoin:round;stroke-miterlimit:2"><path d="M170.064 389.241c-50.462-9.937-89.145-48.925-87.153-119.5 1.342-47.506 36.372-89.509 87.153-111.42V67.672c0-11.034 8.958-19.992 19.992-19.992h39.986c11.034 0 19.992 8.958 19.992 19.992v74.485c25.165.062 50.588 4.824 74.092 15.064 4.926-32.975 5.193-71.021-.94-114.084-2.942-20.656 11.44-39.813 32.095-42.755s39.813 11.439 42.755 32.094c9.895 69.475 5.45 128.385-7.962 177.097 38.268 51.694 56.614 139.018 16.687 275.249-5.868 20.022-26.887 31.513-46.909 25.645s-31.513-26.887-25.645-46.909c21.066-71.875 24.541-125.797 15.218-164.865-20.478 29.881-44.84 52.217-69.531 67.253-9.874 6.013-19.881 10.921-29.86 14.773v50.771c0 11.034-8.958 19.992-19.992 19.992h-39.986c-11.034 0-19.992-8.958-19.992-19.992zm0-142.751c-6.931 7.138-11.301 15.577-11.578 25.385-.463 16.41 3.036 29.001 11.578 36.4zm79.97 49.212c20.003-14.315 38.447-36.043 52.349-65.094-15.993-9.185-34.241-13.128-52.349-13.087z"/></svg>

<?xml version="1.0" encoding="UTF-8" standalone="no"?><!DOCTYPE svg PUBLIC "-//W3C//DTD SVG 1.1//EN" "http://www.w3.org/Graphics/SVG/1.1/DTD/svg11.dtd"><svg width="512px" height="512px" version="1.1" xmlns="http://www.w3.org/2000/svg" xmlns:xlink="http://www.w3.org/1999/xlink" xml:space="preserve" xmlns:serif="http://www.serif.com/" style="fill-rule:evenodd;clip-rule:evenodd;stroke-linejoin:round;stroke-miterlimit:2;"><path d="M170.064,389.241C119.602,379.304 80.919,340.316 82.911,269.741C84.253,222.235 119.283,180.232 170.064,158.321L170.064,67.672C170.064,56.638 179.022,47.68 190.056,47.68L230.042,47.68C241.076,47.68 250.034,56.638 250.034,67.672L250.034,142.157C275.199,142.219 300.622,146.981 324.126,157.221C329.052,124.246 329.319,86.2 323.186,43.137C320.244,22.481 334.626,3.324 355.281,0.382C375.936,-2.56 395.094,11.821 398.036,32.476C407.931,101.951 403.486,160.861 390.074,209.573C428.342,261.267 446.688,348.591 406.761,484.822C400.893,504.844 379.874,516.335 359.852,510.467C339.83,504.599 328.339,483.58 334.207,463.558C355.273,391.683 358.748,337.761 349.425,298.693C328.947,328.574 304.585,350.91 279.894,365.946C270.02,371.959 260.013,376.867 250.034,380.719L250.034,431.49C250.034,442.524 241.076,451.482 230.042,451.482L190.056,451.482C179.022,451.482 170.064,442.524 170.064,431.49L170.064,389.241ZM170.064,246.49C163.133,253.628 158.763,262.067 158.486,271.875C158.023,288.285 161.522,300.876 170.064,308.275L170.064,246.49ZM250.034,295.702C270.037,281.387 288.481,259.659 302.383,230.608C286.39,221.423 268.142,217.48 250.034,217.521L250.034,295.702Z"/></svg>
